X:199
T:Bohemia First Scot Sett No.4. Le4.199
M:2/4
L:1/8
Q:2/4=50
N:* Rest inserted by transcriber
B:L.Leadley MS#4 c1850
Z:Village Music Project 2016 Steve Mansfield
K:D
A/B/c/ | d/e/d/c/ df | A3f | dafd' | d'2 c'e |
e/f/e/^d/ eg | Bb2 g/e/ | b/a/f/d/ a/g/e/c/ | e2 d/ :|
"*" z/ !>!f | e2 cA & CECE | B3e & DGB,G | fecA & CECE | B3d & B,DGB |
Aa2 e/c/ & AAAA | B/c/B/c/ f/c/d/B/ & B2 B2 | A2 c>B & A2 {F}GG | B A/A/B/c/ !segno! ||
c/d/ | e/f/e/^d/ eb | a2 fa | baef | d2 Bf |
e/f/e/^d/ eb | ad' eb | da Ac | e2 d/A/B/c/ |]

